X:373
T:Cameron's Got His Wife Again
M:C
L:1/8
K:D major
B | "D"d>B A>F A/A/A A>B | "D"d>B A>F "A"E/E/E E>c |"D"d>B A>F "A"A<g f>e |
"A"d>B A>F D/D/D D :| g | "D"f>d f<a "A"e<g f>e | "D"f>d f<a "G"B/B/B B>g |
"D"f>d f<a "A"e<g f>e | "D"d>B A>F D/D/D D>g | "D"f>d f<a "A"e<g f>e |
"D"f>d f<a "G"B/B/B B>c | "D"d/e/f/g/ "A"a>f e<g f>e | "D"d>B A>F D/D/D D |]

